images/Traffic_Sign_GR_-_KOK_2009_-_P-33.svg

<svg width="460" height="655" fill="none" xmlns="http://www.w3.org/2000/svg"><path fill="#0C479D" d="M0 0h460v655H0z"/><path d="M53 505V150h355v355H53z" fill="#fff"/><path d="M291 215.885V180h-66.335C222.539 197.941 170 196.361 170 196.361v19.524h68.858v11.61H170v23.219h68.858v10.027c0 12.667-15.655 118.184-15.655 144.601 0 38.473 13.424 69.658 29.985 69.658 16.56 0 29.984-31.185 29.984-69.658 0-26.417-15.655-130.405-15.655-144.601v-10.027H291v-23.219h-23.483v-11.61H291" fill="#000"/></svg>

<svg width="460" height="655" viewBox="0 0 460 655" fill="none" xmlns="http://www.w3.org/2000/svg">
<rect width="460" height="655" fill="#0C479D"/>
<path d="M53 505V150H408V505H53Z" fill="white"/>
<path d="M291 215.885V180H224.665C222.539 197.941 170 196.361 170 196.361V215.885H238.858V227.495H170V250.714H238.858V260.741C238.858 273.408 223.203 378.925 223.203 405.342C223.203 443.815 236.627 475 253.188 475C269.748 475 283.172 443.815 283.172 405.342C283.172 378.925 267.517 274.937 267.517 260.741V250.714H291V227.495H267.517V215.885H291" fill="black"/>
</svg>
